X:1
T:Title
%%score { 1 | 2 }
L:1/8
M:4/4
K:Eb
V:1 treble nm="Grand Piano"
V:2 bass 
V:1
 z4 z2[Q:1/4=100] E2 | G2 G2 GFGA | [GB][GB]Gc B2 G2 |[M:3/4] [DF]6 |[M:1/4] [DF]2 | %5
[M:4/4] [DA]2 [FA]2 [FA][EG][DA][FB] | [Ac][Ac][FA][Ad] [Ac]2 [FA]2 |[M:3/4] [EG]6 |[M:1/4] [EB]2 | %9
[M:4/4] [Ge]2 [Ge]2 [Ge][Gd][Gc][GB] | dcBA G2 c2 |[M:3/4] B6 |[M:1/4] [CEA]2 | %13
[M:4/4] [B,EG]2 [A,DF]2 [G,CE][G,CE][G,CE][Ec] | [EB] [B,EG]3 z2 [B,E][CFA] | %15
[M:7/8] [B,EG]2 [A,DF]2 [G,E]3 |[M:1/4] [B,EG][B,FA] |[M:4/4] [GB]2 [Ac]2 [GB]2 EF | G2 A2 G2 G2 | %19
 FFG=A [DB][DB][Ec][Ge] |[M:9/8] [Fd]2 [Ec]- [Ec] [DB]2- [DB][EG][FA] | %21
[M:4/4] [GB]2 [Ac]2 [GB]2 EF | G2 A2 G2 [DF]2 | [CE]2 [CE]2 [CE][=B,D][CE][Ec] | %24
 [EB] [B,EG]3 z2 [B,E][CFA] |[M:7/8] [B,EG]2 [A,DF]2 [G,E]3 |] %26
V:2
 z4 z2 [E,G,]2 | [E,B,E]2 [E,B,E]2 [E,B,E][A,B,D][G,B,E][F,EF] | %2
 [E,E][E,E][E,B,E][E,A,E] [E,G,E]2 [E,B,E]2 |[M:3/4] [B,,B,]6 |[M:1/4] [B,,B,]2 | %5
[M:4/4] [F,B,]2 [D,B,]2 [B,,B,][B,,B,][B,,B,][B,,A,] | %6
 [B,,F,][B,,F,][B,,B,][B,,B,] [B,,B,]2 [B,,B,]2 |[M:3/4] [E,B,]6 |[M:1/4] [E,G,]2 | %9
[M:4/4] [E,B,]2 [E,B,]2 [E,B,][E,B,][E,E][E,E] | %10
 [A,B,F][A,B,D][K:bass][G,B,E][F,B,E] [E,B,E]2 [E,A,E]2 |[M:3/4] [E,G,E]6 |[M:1/4] A,,2 | %13
[M:4/4] B,,2 B,,2 C,C,C,[A,,A,] | [E,G,] E,3 z2 G,,A,, |[M:7/8] B,,2 B,,2 E,3 |[M:1/4] E,E, | %17
[M:4/4] [E,E]2 [E,E]2 [E,E]2 [E,G,][E,A,E] | [E,B,E]2 [E,CE]2 [E,B,E]2 [E,B,E]2 | %19
 [F,B,D][F,B,D][F,=A,E][F,E] [B,,F,][B,,F,][E,G,][E,B,] | %20
[M:9/8] [F,B,]2 [F,=A,]- [F,A,] [B,,B,]2- [B,,B,][E,B,][E,B,] | %21
[M:4/4] [E,E]2 [E,E]2 [E,E]2 [E,G,][E,A,E] | [E,B,E]2 [E,CE]2 [E,B,E]2 [B,,A,]2 | %23
 [C,G,]2 [C,G,]2 [G,,G,][G,,G,][C,G,][A,,A,] | [E,G,] E,3 z2 G,,A,, |[M:7/8] B,,2 B,,2 E,3 |] %26

